X:149
T: Song qing lang
N: C0249
O: China,Guangdong, Lufeng
S: II, 406, 2)]
N: Vgl. Nr. 59, 98
N: Der Saenger Lai Yuan Shen war frueher selbst Landarbeiter. Heute ist
N: er Student an der Guangzhouer Musikhochschule. Aufgenommen am 5.5.87
N: Einige Verzierungen.
R: Shange. Nann liqing]
M: 2/4
L: 1/16
K: E
G2G2c2e2- | e6(3gcB | e2cec2B2- | B8 |
G2G2e2c2- | c6(3ecG | B2e2c2B2- | B8 |
G2G2c2e2- | e6(3gcB | e2B2cec2 |
G2G2e2c2- | c6(3ecG | e2cec2B2- | B8

@@@ Tune index: 6150
